assets/assets/svgs/email_icon.svg

<svg width="24" height="24" viewBox="0 0 24 24" fill="none" xmlns="http://www.w3.org/2000/svg">
<path fill-rule="evenodd" clip-rule="evenodd" d="M7 2.75C5.38503 2.75 3.92465 3.15363 2.86466 4.1379C1.79462 5.13152 1.25 6.60705 1.25 8.5V15.5C1.25 17.393 1.79462 18.8685 2.86466 19.8621C3.92465 20.8464 5.38503 21.25 7 21.25H17C18.615 21.25 20.0754 20.8464 21.1353 19.8621C22.2054 18.8685 22.75 17.393 22.75 15.5V8.5C22.75 6.60705 22.2054 5.13152 21.1353 4.1379C20.0754 3.15363 18.615 2.75 17 2.75H7ZM19.2285 8.3623C19.5562 8.10904 19.6166 7.63802 19.3633 7.31026C19.1101 6.98249 18.6391 6.9221 18.3113 7.17537L12.7642 11.4616C12.3141 11.8095 11.6858 11.8095 11.2356 11.4616L5.6886 7.17537C5.36083 6.9221 4.88982 6.98249 4.63655 7.31026C4.38328 7.63802 4.44367 8.10904 4.77144 8.3623L10.3185 12.6486C11.3089 13.4138 12.691 13.4138 13.6814 12.6486L19.2285 8.3623Z" fill="#2D9CDB"/>
</svg>

<svg xmlns="http://www.w3.org/2000/svg" width="24" height="24" fill="none" xmlns:v="https://vecta.io/nano"><path fill-rule="evenodd" d="M7 2.75c-1.615 0-3.075.404-4.135 1.388C1.795 5.132 1.25 6.607 1.25 8.5v7c0 1.893.545 3.369 1.615 4.362 1.06.984 2.52 1.388 4.135 1.388h10c1.615 0 3.075-.404 4.135-1.388 1.07-.994 1.615-2.469 1.615-4.362v-7c0-1.893-.545-3.368-1.615-4.362-1.06-.984-2.52-1.388-4.135-1.388H7zm12.229 5.612a.75.75 0 1 0-.917-1.187l-5.547 4.286a1.25 1.25 0 0 1-1.529 0L5.689 7.175a.75.75 0 0 0-.917 1.187l5.547 4.286a2.75 2.75 0 0 0 3.363 0l5.547-4.286z" fill="#2d9cdb"/></svg>
